icon-themes/sifr_svg/cmd/lc_wrapleft.svg

<svg viewBox="0 0 24 24" xmlns="http://www.w3.org/2000/svg"><g fill="#555753"><path d="m2 2v2h20v-2zm0 4v2h6v-2zm8 0v12h12v-12zm2 2h8v8h-8zm-10 3v2h6v-2zm0 5v2h6v-2zm0 4v2h20v-2z"/><path d="m12 8v8h8v-8z" opacity=".35"/></g></svg>

<svg xmlns="http://www.w3.org/2000/svg" viewBox="0 0 24 24">
  <path
     style="fill:#555753"
     d="M 2,2 V 4 H 22 V 2 Z M 2,6 V 8 H 8 V 6 Z m 8,0 V 18 H 22 V 6 Z m 2,2 h 8 v 8 H 12 Z M 2,11 v 2 h 6 v -2 z m 0,5 v 2 h 6 v -2 z m 0,4 v 2 h 20 v -2 z"
     />
  <path
     style="opacity:0.35;fill:#555753"
     d="m 12,8 v 8 h 8 V 8 Z"
     />
</svg>
